X: 1
T: Temperance Reel
R: reel
S: page in Concord Slow Scottish Session collection
Z: 2015 John Chambers <jc:trillian.mit.edu>
M: C|
R: reel
K: G
(3DEF |\
"G"G2{A}GF GABc | dBge dBAc | "Em"BE{F}ED EFGA | "D"BGAF GFED |
"G"G2{A}GF GABc | dBge dBAc | "Em"BE{F}ED EFGA | "D"BdAF "G"G2 :|
|: B2 |\
"Em"Beed e3f | geaf gfed | "D"Adde d3e | feaf gfed |
"Em"Beed e3f | geaf gfed | "Em"BE{F}ED EFGA | "D"BdAF "G"G2 :|
